images/user-b.svg

<?xml version="1.0" encoding="UTF-8" standalone="no"?>
<svg width="48px" height="48px" viewBox="0 0 48 48" version="1.1" xmlns="http://www.w3.org/2000/svg" xmlns:xlink="http://www.w3.org/1999/xlink">
    <!-- Generator: Sketch 46.2 (44496) - http://www.bohemiancoding.com/sketch -->
    <title>systemicon/black/user</title>
    <desc>Created with Sketch.</desc>
    <defs></defs>
    <g id="Symbols" stroke="none" stroke-width="1" fill="none" fill-rule="evenodd">
        <g id="systemicon/black/user">
            <g id="User-Copy">
                <rect id="Rectangle-9" x="0" y="0" width="48" height="48"></rect>
                <path d="M24,28 C17.372583,28 12,22.627417 12,16 C12,9.372583 17.372583,4 24,4 C30.627417,4 36,9.372583 36,16 C36,22.627417 30.627417,28 24,28 Z M24,25 C28.9705627,25 33,20.9705627 33,16 C33,11.0294373 28.9705627,7 24,7 C19.0294373,7 15,11.0294373 15,16 C15,20.9705627 19.0294373,25 24,25 Z" id="Combined-Shape" fill="#303233"></path>
                <path d="M41,44 L44,44 L44,42 C44,36.008749 40,32 34,32 L14,32 C8,32 4,36 4,42 L4,44 L7,44 L7,42 C7,38.1340068 10.1340068,35 14,35 L34,35 C37.8659932,35 41,38.1340068 41,42 L41,44 Z" id="Combined-Shape" fill="#303233"></path>
            </g>
        </g>
    </g>
</svg>

<svg width="48" height="48" xmlns="http://www.w3.org/2000/svg"><g fill="none" fill-rule="evenodd"><path d="M0 0h48v48H0z"/><path d="M24 28c-6.627 0-12-5.373-12-12S17.373 4 24 4s12 5.373 12 12-5.373 12-12 12zm0-3a9 9 0 100-18 9 9 0 000 18zm17 19h3v-2c0-5.991-4-10-10-10H14C8 32 4 36 4 42v2h3v-2a7 7 0 017-7h20a7 7 0 017 7v2z" fill="#303233"/></g></svg>
